icons/svg/etsy.svg

﻿<?xml version="1.0" encoding="utf-8"?>
<!DOCTYPE svg PUBLIC "-//W3C//DTD SVG 1.1//EN" "http://www.w3.org/Graphics/SVG/1.1/DTD/svg11.dtd">
<svg xmlns="http://www.w3.org/2000/svg" xmlns:xlink="http://www.w3.org/1999/xlink" version="1.1" baseProfile="full" width="24" height="24" viewBox="0 0 24.00 24.00" enable-background="new 0 0 24.00 24.00" xml:space="preserve">
	<path fill="#000000" fill-opacity="1" stroke-width="0.2" stroke-linejoin="round" d="M 6.7163,20.7809C 8.23277,20.7149 10.0747,20.7809 11.8702,20.7809C 13.7238,20.7809 15.6217,20.6576 17.1164,20.7809C 17.7201,20.8307 18.2758,21.1924 18.7735,20.8723C 19.1576,20.3776 18.8727,19.7135 18.9577,19.0482C 19.1188,17.7845 20.284,16.2699 18.5891,15.9474C 17.8671,16.6055 18.3538,17.23 17.9451,18.0452C 17.4503,19.0318 15.6763,19.3732 13.9874,19.504C 12.538,19.6165 9.99729,19.7617 9.4772,18.7745C 9.03812,17.9414 9.29277,16.6491 9.29277,15.5827C 9.29277,14.3763 9.16334,13.2217 9.4772,12.2993C 11.3185,12.4339 13.7,11.6856 14.9998,12.4818C 15.8692,13.0146 15.3749,14.0575 16.3805,14.3967C 17.0726,14.2111 16.7031,13.3163 16.6563,12.4818C 16.6265,11.9437 16.6289,11.1877 16.6563,10.5664C 16.6933,9.72806 17.0172,8.75527 16.1038,8.74267C 15.3865,9.30019 15.926,10.2293 15.1834,10.7488C 14.9462,10.9151 14.4309,10.9855 14.0796,11.0227C 12.7004,11.1683 10.5366,11.0495 9.38499,10.8401C 9.22635,9.15935 9.24016,6.86894 9.38499,5.18582C 10.0101,4.5651 11.448,4.54351 12.4225,4.54732C 14.1298,4.55392 16.7923,4.69613 17.3006,5.55049C 17.5771,6.01536 17.358,6.98834 17.8529,7.10077C 18.8489,7.32801 18.3648,5.5511 18.4054,4.72953C 18.4354,4.11362 18.7077,3.71716 18.5891,3.27028C 18.2668,2.82999 17.7865,3.05064 17.4851,3.08805C 14.3527,3.4753 9.59583,3.27028 6.25601,3.27028C 5.85714,3.27028 5.16041,3.07144 4.87536,3.54392C 4.68272,4.59753 6.12079,4.16185 6.62408,4.72953C 6.78771,4.91419 7.02955,5.72972 7.08416,6.28023C 7.22979,7.7419 7.08416,9.9741 7.08416,12.1169C 7.08416,14.3811 7.25619,16.6651 7.08416,18.0452C 7.02435,18.5271 6.7335,19.3032 6.62408,19.413C 5.99696,20.0395 4.33926,19.3458 4.5069,20.6901C 5.0894,21.0821 5.93316,20.8151 6.7163,20.7809 Z "/>
</svg>

<svg xmlns="http://www.w3.org/2000/svg" version="1.1" baseProfile="full" width="24" height="24" viewBox="0 0 24.00 24.00" xml:space="preserve"><path fill="#000" fill-opacity="1" stroke-width=".2" stroke-linejoin="round" d="M6.716 20.78c1.517-.065 3.36 0 5.154 0 1.854 0 3.752-.122 5.246 0 .604.05 1.16.412 1.657.092.385-.494.1-1.16.185-1.824.16-1.263 1.326-2.778-.37-3.1-.72.657-.234 1.282-.643 2.097-.495.987-2.27 1.328-3.958 1.46-1.45.11-3.99.257-4.51-.73-.44-.834-.184-2.126-.184-3.192 0-1.207-.13-2.36.184-3.284 1.84.134 4.223-.614 5.523.182.87.533.375 1.575 1.38 1.915.693-.186.323-1.08.276-1.915-.03-.538-.027-1.294 0-1.916.037-.838.36-1.81-.552-1.823-.717.557-.178 1.486-.92 2.006-.238.165-.753.236-1.104.273-1.38.145-3.543.027-4.695-.183-.16-1.68-.145-3.97 0-5.654.625-.62 2.063-.642 3.037-.64 1.708.008 4.37.15 4.88 1.004.275.465.056 1.438.55 1.55.997.228.513-1.55.553-2.37.03-.616.303-1.013.184-1.46-.323-.44-.803-.22-1.105-.182-3.132.387-7.89.182-11.23.182-.398 0-1.095-.2-1.38.274-.192 1.054 1.246.618 1.75 1.186.163.184.405 1 .46 1.55.145 1.462 0 3.694 0 5.837 0 2.264.17 4.548 0 5.928-.06.482-.35 1.258-.46 1.368-.628.627-2.286-.067-2.118 1.277.582.392 1.426.125 2.21.09z"/></svg>
